Adwaita-green/scalable/mimetypes/application-x-executable.svg

<?xml version="1.0" encoding="UTF-8"?>
<svg height="128px" viewBox="0 0 128 128" width="128px" xmlns="http://www.w3.org/2000/svg" xmlns:xlink="http://www.w3.org/1999/xlink">
    <clipPath id="a">
        <path d="m 4 4 h 119 v 119 h -119 z m 0 0"/>
    </clipPath>
    <clipPath id="b">
        <path d="m 69.164062 6.558594 l 51.542969 51.542968 c 3.046875 3.046876 3.046875 7.988282 0 11.035157 l -51.542969 51.542969 c -3.046874 3.046874 -7.988281 3.046874 -11.035156 0 l -51.542968 -51.542969 c -3.046876 -3.046875 -3.046876 -7.988281 0 -11.035157 l 51.542968 -51.542968 c 3.046875 -3.046875 7.988282 -3.046875 11.035156 0 z m 0 0"/>
    </clipPath>
    <clipPath id="c">
        <path d="m 48 32 h 75 v 91 h -75 z m 0 0"/>
    </clipPath>
    <clipPath id="d">
        <path d="m 69.164062 6.558594 l 51.542969 51.542968 c 3.046875 3.046876 3.046875 7.988282 0 11.035157 l -51.542969 51.542969 c -3.046874 3.046874 -7.988281 3.046874 -11.035156 0 l -51.542968 -51.542969 c -3.046876 -3.046875 -3.046876 -7.988281 0 -11.035157 l 51.542968 -51.542968 c 3.046875 -3.046875 7.988282 -3.046875 11.035156 0 z m 0 0"/>
    </clipPath>
    <clipPath id="e">
        <path d="m 4 4 h 57 v 89 h -57 z m 0 0"/>
    </clipPath>
    <clipPath id="f">
        <path d="m 69.164062 6.558594 l 51.542969 51.542968 c 3.046875 3.046876 3.046875 7.988282 0 11.035157 l -51.542969 51.542969 c -3.046874 3.046874 -7.988281 3.046874 -11.035156 0 l -51.542968 -51.542969 c -3.046876 -3.046875 -3.046876 -7.988281 0 -11.035157 l 51.542968 -51.542968 c 3.046875 -3.046875 7.988282 -3.046875 11.035156 0 z m 0 0"/>
    </clipPath>
    <g clip-path="url(#a)">
        <g clip-path="url(#b)">
            <path d="m 65.136719 2.53125 l 59.597656 59.597656 c 0.824219 0.824219 0.824219 2.15625 0 2.980469 l -59.597656 59.597656 c -0.824219 0.824219 -2.15625 0.824219 -2.980469 0 l -59.597656 -59.597656 c -0.824219 -0.824219 -0.824219 -2.15625 0 -2.980469 l 59.597656 -59.597656 c 0.824219 -0.824219 2.15625 -0.824219 2.980469 0 z m 0 0" fill="#3584e4"/>
        </g>
    </g>
    <g clip-path="url(#c)">
        <g clip-path="url(#d)">
            <path d="m 100.933594 32.875 l -2.410156 7.273438 c -0.117188 -0.007813 -0.230469 -0.011719 -0.347657 -0.015626 c -1.953125 0.011719 -3.902343 0.164063 -5.835937 0.449219 l -3.363282 -6.949219 c -2.4375 0.46875 -4.832031 1.117188 -7.171874 1.945313 l 0.558593 7.65625 c -1.910156 0.78125 -3.765625 1.707031 -5.542969 2.761719 l -5.78125 -5.148438 c -2.066406 1.371094 -4.027343 2.890625 -5.867187 4.554688 l 3.4375 6.84375 c -1.464844 1.460937 -2.820313 3.027344 -4.058594 4.6875 l -7.328125 -2.550782 c -1.378906 2.058594 -2.605468 4.21875 -3.660156 6.460938 l 5.785156 5 c -0.792968 1.910156 -1.441406 3.878906 -1.945312 5.886719 l -7.738282 0.449219 c -0.492187 2.429687 -0.800781 4.894531 -0.921874 7.371093 l 7.273437 2.410157 c -0.003906 0.113281 -0.011719 0.230468 -0.015625 0.347656 c 0.015625 1.953125 0.164062 3.902344 0.449219 5.835937 l -6.949219 3.363281 c 0.46875 2.433594 1.117188 4.832032 1.945312 7.167969 l 7.65625 -0.554687 c 0.785157 1.910156 1.707032 3.765625 2.761719 5.542968 l -5.148437 5.78125 c 1.371094 2.066407 2.894531 4.027344 4.554687 5.867188 l 6.84375 -3.4375 c 1.460938 1.464844 3.027344 2.820312 4.6875 4.054688 l -2.546875 7.332031 c 2.054688 1.378906 4.214844 2.601562 6.457032 3.660156 l 5 -5.785156 c 1.914062 0.792969 3.878906 1.441406 5.886718 1.945312 l 0.453125 7.738281 c 2.429688 0.488282 4.890625 0.796876 7.367188 0.921876 l 2.410156 -7.273438 c 0.117187 0.003906 0.230469 0.011719 0.347656 0.015625 c 1.953125 -0.015625 3.902344 -0.164063 5.835938 -0.449219 l 3.363281 6.949219 c 2.433594 -0.46875 4.832031 -1.117187 7.167969 -1.945313 l -0.554688 -7.65625 c 1.910157 -0.785156 3.765625 -1.707031 5.542969 -2.761718 l 5.78125 5.144531 c 2.066406 -1.367187 4.027344 -2.890625 5.867188 -4.550781 l -3.4375 -6.847656 c 1.464843 -1.457032 2.820312 -3.023438 4.054687 -4.683594 l 7.332031 2.546875 c 1.378906 -2.058594 2.601563 -4.214844 3.660156 -6.457031 l -5.785156 -5 c 0.792969 -1.914063 1.441406 -3.878907 1.945313 -5.886719 l 7.738281 -0.453125 c 0.492188 -2.429688 0.796875 -4.890625 0.921875 -7.367188 l -7.273437 -2.410156 c 0.003906 -0.117188 0.011718 -0.230469 0.015624 -0.347656 c -0.015624 -1.953125 -0.164062 -3.902344 -0.449218 -5.835938 l 6.949218 -3.363281 c -0.46875 -2.4375 -1.117187 -4.832031 -1.945312 -7.171875 l -7.65625 0.558594 c -0.785156 -1.914063 -1.707031 -3.765625 -2.761719 -5.542969 l 5.144531 -5.78125 c -1.367187 -2.066406 -2.890624 -4.027344 -4.550781 -5.867187 l -6.847656 3.4375 c -1.457031 -1.464844 -3.023437 -2.820313 -4.683594 -4.058594 l 2.546875 -7.328125 c -2.058594 -1.378907 -4.214844 -2.605469 -6.457031 -3.660157 l -5 5.785157 c -1.914063 -0.792969 -3.878906 -1.441407 -5.886719 -1.945313 l -0.453125 -7.738281 c -2.429687 -0.492187 -4.890625 -0.800781 -7.367187 -0.921875 z m -2.757813 18.484375 c 17.09375 0 30.949219 13.855469 30.949219 30.949219 s -13.855469 30.949218 -30.949219 30.949218 s -30.949219 -13.855468 -30.949219 -30.949218 s 13.855469 -30.949219 30.949219 -30.949219 z m 0 0" fill="#98c1f1"/>
        </g>
    </g>
    <g clip-path="url(#e)">
        <g clip-path="url(#f)">
            <path d="m 13.84375 -6.292969 l -2.414062 7.273438 c -0.113282 -0.007813 -0.230469 -0.011719 -0.347657 -0.019531 c -1.953125 0.015624 -3.902343 0.167968 -5.832031 0.453124 l -3.367188 -6.949218 c -2.433593 0.46875 -4.832031 1.117187 -7.167968 1.945312 l 0.558594 7.65625 c -1.914063 0.78125 -3.765626 1.703125 -5.542969 2.757813 l -5.785157 -5.144531 c -2.066406 1.371093 -4.027343 2.890624 -5.867187 4.554687 l 3.4375 6.84375 c -1.464844 1.460937 -2.820313 3.027344 -4.054687 4.683594 l -7.328126 -2.546875 c -1.382812 2.058594 -2.605468 4.21875 -3.664062 6.460937 l 5.789062 5 c -0.792968 1.910157 -1.445312 3.878907 -1.949218 5.886719 l -7.738282 0.449219 c -0.488281 2.429687 -0.796874 4.894531 -0.917968 7.367187 l 7.273437 2.414063 c -0.007812 0.113281 -0.011719 0.230469 -0.019531 0.347656 c 0.015625 1.953125 0.167969 3.902344 0.453125 5.832031 l -6.949219 3.367188 c 0.464844 2.433594 1.117188 4.832031 1.941406 7.167968 l 7.660157 -0.558593 c 0.78125 1.914062 1.703125 3.765625 2.757812 5.542969 l -5.144531 5.785156 c 1.367188 2.066406 2.890625 4.027344 4.554688 5.867187 l 6.84375 -3.4375 c 1.460937 1.464844 3.027343 2.820313 4.683593 4.054688 l -2.546875 7.328125 c 2.058594 1.382812 4.21875 2.605468 6.457032 3.664062 l 5.003906 -5.785156 c 1.910156 0.789062 3.878906 1.441406 5.886718 1.945312 l 0.449219 7.738282 c 2.429688 0.488281 4.890625 0.796875 7.367188 0.917968 l 2.410156 -7.273437 c 0.117187 0.007813 0.234375 0.015625 0.347656 0.019531 c 1.953125 -0.015625 3.902344 -0.167968 5.835938 -0.453125 l 3.367187 6.949219 c 2.433594 -0.464844 4.828125 -1.117188 7.167969 -1.941406 l -0.558594 -7.660156 c 1.914063 -0.78125 3.765625 -1.703126 5.542969 -2.757813 l 5.785156 5.144531 c 2.066406 -1.367187 4.027344 -2.890625 5.863282 -4.554687 l -3.4375 -6.84375 c 1.46875 -1.460938 2.824218 -3.023438 4.058593 -4.683594 l 7.328125 2.546875 c 1.382813 -2.058594 2.605469 -4.21875 3.664063 -6.457031 l -5.789063 -5 c 0.792969 -1.914063 1.445313 -3.882813 1.949219 -5.890625 l 7.734375 -0.449219 c 0.492188 -2.429687 0.800781 -4.890625 0.921875 -7.367187 l -7.273437 -2.410157 c 0.007812 -0.117187 0.011718 -0.234375 0.019531 -0.347656 c -0.015625 -1.953125 -0.167969 -3.902344 -0.453125 -5.835937 l 6.949218 -3.367188 c -0.46875 -2.433594 -1.117187 -4.828125 -1.941406 -7.167969 l -7.660156 0.558594 c -0.78125 -1.914063 -1.703125 -3.765625 -2.757812 -5.542969 l 5.144531 -5.785156 c -1.371094 -2.066406 -2.890625 -4.027344 -4.554688 -5.863281 l -6.84375 3.4375 c -1.460937 -1.464844 -3.027343 -2.824219 -4.683593 -4.058594 l 2.546874 -7.328125 c -2.058593 -1.378906 -4.21875 -2.605469 -6.460937 -3.664062 l -5 5.789062 c -1.910156 -0.792969 -3.878906 -1.445312 -5.886719 -1.949219 l -0.449218 -7.734375 c -2.429688 -0.492187 -4.894532 -0.800781 -7.367188 -0.921875 z m 0 0" fill="#1a5fb4"/>
        </g>
    </g>
    <path d="m 5.167969 60.457031 c -1.234375 3.042969 -0.613281 6.644531 1.859375 9.117188 l 50.660156 50.664062 c 3.300781 3.300781 8.617188 3.300781 11.917969 0 l 50.660156 -50.664062 c 2.472656 -2.472657 3.09375 -6.074219 1.859375 -9.117188 c -0.410156 1.019531 -1.03125 1.972657 -1.859375 2.800781 l -50.660156 50.660157 c -3.300781 3.300781 -8.617188 3.300781 -11.917969 0 l -50.660156 -50.660157 c -0.828125 -0.828124 -1.449219 -1.78125 -1.859375 -2.800781 z m 0 0" fill="#1a5fb4" fill-opacity="0.501961"/>
</svg>

<svg width="128" height="128" viewBox="0 0 128 128" fill="none" xmlns="http://www.w3.org/2000/svg">
<mask id="mask0_6_147" style="mask-type:luminance" maskUnits="userSpaceOnUse" x="4" y="4" width="119" height="119">
<path d="M4 4H123V123H4V4Z" fill="white"/>
</mask>
<g mask="url(#mask0_6_147)">
<mask id="mask1_6_147" style="mask-type:luminance" maskUnits="userSpaceOnUse" x="4" y="4" width="119" height="119">
<path d="M69.1641 6.55859L120.707 58.1016C123.754 61.1484 123.754 66.0898 120.707 69.1367L69.1641 120.68C66.1172 123.727 61.1758 123.727 58.1289 120.68L6.58594 69.1367C3.53906 66.0898 3.53906 61.1484 6.58594 58.1016L58.1289 6.55859C61.1758 3.51172 66.1172 3.51172 69.1641 6.55859Z" fill="white"/>
</mask>
<g mask="url(#mask1_6_147)">
<path d="M65.1367 2.53125L124.734 62.1289C125.559 62.9531 125.559 64.2852 124.734 65.1094L65.1367 124.707C64.3125 125.531 62.9805 125.531 62.1562 124.707L2.55859 65.1094C1.73437 64.2852 1.73437 62.9531 2.55859 62.1289L62.1562 2.53125C62.9805 1.70703 64.3125 1.70703 65.1367 2.53125Z" fill="#33D17A"/>
</g>
</g>
<mask id="mask2_6_147" style="mask-type:luminance" maskUnits="userSpaceOnUse" x="48" y="32" width="75" height="91">
<path d="M48 32H123V123H48V32Z" fill="white"/>
</mask>
<g mask="url(#mask2_6_147)">
<mask id="mask3_6_147" style="mask-type:luminance" maskUnits="userSpaceOnUse" x="4" y="4" width="119" height="119">
<path d="M69.1641 6.55859L120.707 58.1016C123.754 61.1484 123.754 66.0898 120.707 69.1367L69.1641 120.68C66.1172 123.727 61.1758 123.727 58.1289 120.68L6.58594 69.1367C3.53906 66.0898 3.53906 61.1484 6.58594 58.1016L58.1289 6.55859C61.1758 3.51172 66.1172 3.51172 69.1641 6.55859Z" fill="white"/>
</mask>
<g mask="url(#mask3_6_147)">
<path d="M100.934 32.875L98.5234 40.1484C98.4062 40.1406 98.293 40.1367 98.1758 40.1328C96.2227 40.1445 94.2734 40.2969 92.3398 40.582L88.9766 33.6328C86.5391 34.1016 84.1445 34.75 81.8047 35.5781L82.3633 43.2344C80.4531 44.0156 78.5977 44.9414 76.8203 45.9961L71.0391 40.8477C68.9727 42.2188 67.0117 43.7383 65.1719 45.4023L68.6094 52.2461C67.1445 53.707 65.7891 55.2734 64.5508 56.9336L57.2227 54.3828C55.8438 56.4414 54.6172 58.6016 53.5625 60.8438L59.3477 65.8438C58.5547 67.7539 57.9062 69.7227 57.4023 71.7305L49.6641 72.1797C49.1719 74.6094 48.8633 77.0742 48.7422 79.5508L56.0156 81.9609C56.0117 82.0742 56.0039 82.1914 56 82.3086C56.0156 84.2617 56.1641 86.2109 56.4492 88.1445L49.5 91.5078C49.9688 93.9414 50.6172 96.3398 51.4453 98.6758L59.1016 98.1211C59.8867 100.031 60.8086 101.887 61.8633 103.664L56.7148 109.445C58.0859 111.512 59.6094 113.473 61.2695 115.312L68.1133 111.875C69.5742 113.34 71.1406 114.695 72.8008 115.93L70.2539 123.262C72.3086 124.641 74.4687 125.863 76.7109 126.922L81.7109 121.137C83.625 121.93 85.5898 122.578 87.5977 123.082L88.0508 130.82C90.4805 131.309 92.9414 131.617 95.418 131.742L97.8281 124.469C97.9453 124.473 98.0586 124.48 98.1758 124.484C100.129 124.469 102.078 124.32 104.012 124.035L107.375 130.984C109.809 130.516 112.207 129.867 114.543 129.039L113.988 121.383C115.898 120.598 117.754 119.676 119.531 118.621L125.312 123.766C127.379 122.398 129.34 120.875 131.18 119.215L127.742 112.367C129.207 110.91 130.562 109.344 131.797 107.684L139.129 110.23C140.508 108.172 141.73 106.016 142.789 103.773L137.004 98.7734C137.797 96.8594 138.445 94.8945 138.949 92.8867L146.688 92.4336C147.18 90.0039 147.484 87.543 147.609 85.0664L140.336 82.6562C140.34 82.5391 140.348 82.4258 140.352 82.3086C140.336 80.3555 140.187 78.4063 139.902 76.4727L146.852 73.1094C146.383 70.6719 145.734 68.2773 144.906 65.9375L137.25 66.4961C136.465 64.582 135.543 62.7305 134.488 60.9531L139.633 55.1719C138.266 53.1055 136.742 51.1445 135.082 49.3047L128.234 52.7422C126.777 51.2773 125.211 49.9219 123.551 48.6836L126.098 41.3555C124.039 39.9766 121.883 38.75 119.641 37.6953L114.641 43.4805C112.727 42.6875 110.762 42.0391 108.754 41.5352L108.301 33.7969C105.871 33.3047 103.41 32.9961 100.934 32.875ZM98.1758 51.3594C115.27 51.3594 129.125 65.2148 129.125 82.3086C129.125 99.4023 115.27 113.258 98.1758 113.258C81.082 113.258 67.2266 99.4023 67.2266 82.3086C67.2266 65.2148 81.082 51.3594 98.1758 51.3594Z" fill="#8FF0A4"/>
</g>
</g>
<mask id="mask4_6_147" style="mask-type:luminance" maskUnits="userSpaceOnUse" x="4" y="4" width="57" height="89">
<path d="M4 4H61V93H4V4Z" fill="white"/>
</mask>
<g mask="url(#mask4_6_147)">
<mask id="mask5_6_147" style="mask-type:luminance" maskUnits="userSpaceOnUse" x="4" y="4" width="119" height="119">
<path d="M69.1641 6.55859L120.707 58.1016C123.754 61.1484 123.754 66.0898 120.707 69.1367L69.1641 120.68C66.1172 123.727 61.1758 123.727 58.1289 120.68L6.58594 69.1367C3.53906 66.0898 3.53906 61.1484 6.58594 58.1016L58.1289 6.55859C61.1758 3.51172 66.1172 3.51172 69.1641 6.55859Z" fill="white"/>
</mask>
<g mask="url(#mask5_6_147)">
<path d="M13.8438 -6.29297L11.4297 0.98047C11.3164 0.972657 11.1992 0.96875 11.082 0.960938C9.12891 0.976562 7.17969 1.12891 5.25 1.41406L1.88281 -5.53516C-0.550781 -5.06641 -2.94922 -4.41797 -5.28516 -3.58984L-4.72656 4.06641C-6.64063 4.84766 -8.49219 5.76953 -10.2695 6.82422L-16.0547 1.67969C-18.1211 3.05078 -20.082 4.57031 -21.9219 6.23438L-18.4844 13.0781C-19.9492 14.5391 -21.3047 16.1055 -22.5391 17.7617L-29.8672 15.2148C-31.25 17.2734 -32.4727 19.4336 -33.5312 21.6758L-27.7422 26.6758C-28.5352 28.5859 -29.1875 30.5547 -29.6914 32.5625L-37.4297 33.0117C-37.918 35.4414 -38.2266 37.9063 -38.3477 40.3789L-31.0742 42.793C-31.082 42.9062 -31.0859 43.0234 -31.0938 43.1406C-31.0781 45.0938 -30.9258 47.043 -30.6406 48.9727L-37.5898 52.3398C-37.125 54.7734 -36.4727 57.1719 -35.6484 59.5078L-27.9883 58.9492C-27.207 60.8633 -26.2852 62.7148 -25.2305 64.4922L-30.375 70.2773C-29.0078 72.3437 -27.4844 74.3047 -25.8203 76.1445L-18.9766 72.707C-17.5156 74.1719 -15.9492 75.5273 -14.293 76.7617L-16.8398 84.0898C-14.7812 85.4727 -12.6211 86.6953 -10.3828 87.7539L-5.37891 81.9688C-3.46875 82.7578 -1.5 83.4102 0.507812 83.9141L0.957031 91.6523C3.38672 92.1406 5.84766 92.4492 8.32422 92.5703L10.7344 85.2969C10.8516 85.3047 10.9688 85.3125 11.082 85.3164C13.0352 85.3008 14.9844 85.1484 16.918 84.8633L20.2852 91.8125C22.7188 91.3477 25.1133 90.6953 27.4531 89.8711L26.8945 82.2109C28.8086 81.4297 30.6602 80.5078 32.4375 79.4531L38.2227 84.5977C40.2891 83.2305 42.25 81.707 44.0859 80.043L40.6484 73.1992C42.1172 71.7383 43.4727 70.1758 44.707 68.5156L52.0352 71.0625C53.418 69.0039 54.6406 66.8437 55.6992 64.6055L49.9102 59.6055C50.7031 57.6914 51.3555 55.7227 51.8594 53.7148L59.5938 53.2656C60.0859 50.8359 60.3945 48.375 60.5156 45.8984L53.2422 43.4883C53.25 43.3711 53.2539 43.2539 53.2617 43.1406C53.2461 41.1875 53.0937 39.2383 52.8086 37.3047L59.7578 33.9375C59.2891 31.5039 58.6406 29.1094 57.8164 26.7695L50.1562 27.3281C49.375 25.4141 48.4531 23.5625 47.3984 21.7852L52.543 16C51.1719 13.9336 49.6523 11.9727 47.9883 10.1367L41.1445 13.5742C39.6836 12.1094 38.1172 10.75 36.4609 9.51562L39.0078 2.1875C36.9492 0.808594 34.7891 -0.417969 32.5469 -1.47656L27.5469 4.3125C25.6367 3.51953 23.668 2.86719 21.6602 2.36328L21.2109 -5.37109C18.7812 -5.86328 16.3164 -6.17187 13.8438 -6.29297Z" fill="#26A269"/>
</g>
</g>
<path d="M5.16797 60.457C3.9336 63.5 4.55469 67.1016 7.02735 69.5742L57.6875 120.238C60.9883 123.539 66.3047 123.539 69.6055 120.238L120.266 69.5742C122.738 67.1016 123.359 63.5 122.125 60.457C121.715 61.4766 121.094 62.4297 120.266 63.2578L69.6055 113.918C66.3047 117.219 60.9883 117.219 57.6875 113.918L7.02735 63.2578C6.19922 62.4297 5.57813 61.4766 5.16797 60.457Z" fill="#26A269" fill-opacity="0.501961"/>
</svg>
